icon/gr/train.svg

<svg xmlns="http://www.w3.org/2000/svg" viewBox="0 0 24 24" height="1em" width="1em">
  <path fill="none" stroke="#000" stroke-width="2" d="M5,1 L19,1 L19,1 C20.1045695,1 21,1.8954305 21,3 L21,18 L21,18 C21,19.1045695 20.1045695,20 19,20 L5,20 L5,20 C3.8954305,20 3,19.1045695 3,18 L3,3 L3,3 C3,1.8954305 3.8954305,1 5,1 Z M9,2 L15,2 M3,5 L21,5 M4,23 L20,23 M3,12 L21,12 M7,17 C7.55228475,17 8,16.5522847 8,16 C8,15.4477153 7.55228475,15 7,15 C6.44771525,15 6,15.4477153 6,16 C6,16.5522847 6.44771525,17 7,17 Z M17,17 C17.5522847,17 18,16.5522847 18,16 C18,15.4477153 17.5522847,15 17,15 C16.4477153,15 16,15.4477153 16,16 C16,16.5522847 16.4477153,17 17,17 Z M12,5 L12,12 M9,20 L7,23 M15,20 L17,23"/>
</svg>

<svg xmlns="http://www.w3.org/2000/svg" width="24" height="24"><path fill="none" stroke="#000" stroke-width="2" d="M5 1h14a2 2 0 0 1 2 2v15a2 2 0 0 1-2 2H5a2 2 0 0 1-2-2V3a2 2 0 0 1 2-2Zm4 1h6M3 5h18M4 23h16M3 12h18M7 17a1 1 0 1 0 0-2 1 1 0 0 0 0 2Zm10 0a1 1 0 1 0 0-2 1 1 0 0 0 0 2ZM12 5v7m-3 8-2 3m8-3 2 3"/></svg>
